component-icons/svg/grid.svg

<?xml version="1.0" encoding="utf-8"?>
<!-- Generator: Adobe Illustrator 24.2.3, SVG Export Plug-In . SVG Version: 6.00 Build 0)  -->
<svg version="1.1" id="Layer_1" xmlns="http://www.w3.org/2000/svg" xmlns:xlink="http://www.w3.org/1999/xlink" x="0px" y="0px"
	 width="24px" height="24px" viewBox="0 0 24 24" enable-background="new 0 0 24 24" xml:space="preserve">
<path d="M0,0v24h20l4-4V0H0z M22,19.2L19.2,22H2V2h20V19.2z M6,20l2-2h3v2l2-2h3v2l4-4h-2v-3l2-2h-2V8l2-2h-2V4h-2v2h-3V4h-2v2H8V4
	H6v2H4v2h2v3H4v2h2v3H4v2h2V20z M13,8h3v3h-3V8z M13,13h3v3h-3V13z M8,8h3v3H8V8z M8,13h3v3H8V13z"/>
</svg>

<svg id="Layer_1" data-name="Layer 1" xmlns="http://www.w3.org/2000/svg" viewBox="0 0 24 24">
  <defs>
    <style>
      .cls-1 {
        fill: gray;
      }
    </style>
  </defs>
  <title>grid</title>
  <path class="cls-1" d="M0,0V24H20l4-4V0ZM22,19.17,19.17,22H2V2H22ZM6,20l2-2h3v2l2-2h3v2l4-4H18V13l2-2H18V8l2-2H18V4H16V6H13V4H11V6H8V4H6V6H4V8H6v3H4v2H6v3H4v2H6ZM13,8h3v3H13Zm0,5h3v3H13ZM8,8h3v3H8Zm0,5h3v3H8Z"/>
</svg>
